blog/src/icons/svg/read.svg

<?xml version="1.0" standalone="no"?><!DOCTYPE svg PUBLIC "-//W3C//DTD SVG 1.1//EN" "http://www.w3.org/Graphics/SVG/1.1/DTD/svg11.dtd"><svg t="1586007923864" class="icon" viewBox="0 0 1190 1024" version="1.1" xmlns="http://www.w3.org/2000/svg" p-id="15078" xmlns:xlink="http://www.w3.org/1999/xlink" width="232.421875" height="200"><defs><style type="text/css"></style></defs><path d="M636.540541 940.972973h456.648648a13.837838 13.837838 0 0 0 13.837838-13.837838v-664.216216a13.837838 13.837838 0 0 0-13.837838-13.837838H636.540541z m-43.727568 83.027027h-498.162162A96.864865 96.864865 0 0 1 0 927.135135v-664.216216A96.864865 96.864865 0 0 1 96.864865 166.054054H166.054054V96.864865A96.864865 96.864865 0 0 1 262.918919 0a44.834595 44.834595 0 0 1 18.819459 4.428108L604.99027 166.054054h488.198919a96.864865 96.864865 0 0 1 96.864865 96.864865v664.216216a96.864865 96.864865 0 0 1-96.864865 96.864865h-498.162162zM553.513514 233.029189L256.276757 84.687568a13.284324 13.284324 0 0 0-7.195676 12.177297v664.216216a13.837838 13.837838 0 0 0 13.837838 13.837838 44.834595 44.834595 0 0 1 18.819459 4.428108L553.513514 915.511351zM419.00973 940.972973l-166.054054-83.580541A96.864865 96.864865 0 0 1 166.054054 761.081081V249.081081H96.864865a13.837838 13.837838 0 0 0-13.837838 13.837838v664.216216a13.837838 13.837838 0 0 0 13.837838 13.837838z" p-id="15079"></path></svg>

<svg class="icon" viewBox="0 0 1190 1024" xmlns="http://www.w3.org/2000/svg" width="232.422" height="200"><defs><style/></defs><path d="M636.54 940.973h456.65a13.838 13.838 0 0 0 13.837-13.838V262.92a13.838 13.838 0 0 0-13.838-13.838H636.541zM592.814 1024H94.651A96.865 96.865 0 0 1 0 927.135V262.92a96.865 96.865 0 0 1 96.865-96.865h69.19v-69.19A96.865 96.865 0 0 1 262.918 0a44.835 44.835 0 0 1 18.82 4.428L604.99 166.054h488.2a96.865 96.865 0 0 1 96.864 96.865v664.216A96.865 96.865 0 0 1 1093.19 1024H595.027zm-39.3-790.97L256.278 84.687a13.284 13.284 0 0 0-7.196 12.177V761.08a13.838 13.838 0 0 0 13.838 13.838 44.835 44.835 0 0 1 18.82 4.428l271.775 136.164zM419.01 940.972l-166.054-83.58a96.865 96.865 0 0 1-86.902-96.312v-512h-69.19a13.838 13.838 0 0 0-13.837 13.838v664.216a13.838 13.838 0 0 0 13.838 13.838z"/></svg>
